X:2-2
T:Fuga II
Q:"Andante"
M:3/4
L:1/4
%%staves {(1 2) (3 4)}
K:Bb
%%writefields Q 0
Q:1/4=72
V:1 treble
Z6|
V:2
Z6|
V:3 bass
Z3|zF,B,|A,D=B,-|B,/C/ G,/A,/_B,/C/|
V:4
zB,,E,|D,G,=E,-|E,/F,/ C,/D,/_E,/F,/|\
	E,/D,/-D,/C,/D,/=E,/|F,/=E,/F,/_A,/G,/F,/|=E,3/F,/D,/E,/|
V:1
Z3zFB|Ad=B-|B/c/ G/A/_B/c/|
V:2
zB,E|DG=E-|E/F/ C/D/_E/F/|E/D/- D/C/D/=E/|\
	F/=E/F/_A/G/F/|=E3/F/D/E/|
V:3
B,/A,//G,//F,B,/C/|F,D/_D/C-|C3/B,C/|B,2B,|\
	C_A,/F/=E/D/|C_B,/A,/ G,/C,/|
V:4
F,/>_E,/ D,/B,,/G,,/A,,/|B,,/F,/B,>B,|\
	A,3/B,/G,/A,/|B,A,G,|F,2G,|C,3|
V:1
B/A/ d/=e/f/g/|f=e>e|fzz|z3|z3|
V:2
F-F/B/A/G/-|G/d/ c/B//A// B/A//G//|FFB|Ad=B-|B/c/ G/A/_B/c/|
V:3
F,B,C/D/|C2D/C//B,//|A/F//=E// F/E/D/E/|F2G/F/|=E_E/DC/-|
V:4
D,B,/G,/A,/B,/|CC,2|F,D,G,|D/C/B,/_A,/G,|C3/^F,/G,/=E,/|
V:1
zcf|=ea^f-|f/g/ =e/=f/g/a/|g/f/cd-|d/^c/f>f-|f/=e/_e>e|
V:2
B/A/_A2|G=A=B/A/|Gc/=B/_B|A3/A/G/^G/|A>A_A|G2-G/G/-|
V:3
C2D-|D/C/ C/A,/D/C/|=B,C2-|CA,D|=EFD-|D/C/-C>C-|
V:4
F,3/C,/=B,,/=B,/-|B,/C/F,D,|G,C,/D,/=E,/C,/|\
	F,F,B,|A,D=B,-|B,/C/ G,/A,/_B,/C/|
V:1
ed/c/B/A/|G3|A2d-|d/^c/zz|z3|z3|
V:2
G/F/ B/A/G/_E/|D/^C/ D/F/=E/D/|^C/D/ G/F/=E/D/|\
	=EA,D|^CFD-|D/=E/ =B/^C/D/E/|
V:3
CB,/_E/D/C/|B,D,G,|F,B,^G,-|G,/A,/ =E,/=F,/=G,/A,/|\
	G,/F,//=E,// D,/A,/B,/A,/|^G,3/A,/^F,/G,/|
V:4
B,/A,/B,B,,|B,,3|A,,3-|A,,zz|z3|z3|
%
V:1
zDG|FB^G-|G/A/ =E/^G/=G/A/-|A/G/d>c-|c/=B/g>f|
V:2
^C/A,/D=E-|E/DF/=E/D/|^C=CD/_E/|D3/D/=E/^F/|G3/G/A/=B/|
V:3
A,/=G,/ =F,/D,^C,/|D,3/D/^C/=B,/|A,D,/A,/_B,/C/|\
	B,3/B,/=A,/D,/|G,=ED/G,/|
V:4
Z5|
V:1
f/=e/c>_B-|B/A/f>_e-|e/d/ d/c/ B/c/|d>dg-|gf>f|
V:2
c3/C/D/=E/|F3/F/G/A/-|A/B/ F/^F/G-|G/^F/ G/d/c/B/|_A2-A/A/-|
V:3
CA,G,/C,/|F,DC/F,/|B,2G,/A,/|B,/A,/B,C-|CC>F,|
V:4
z3|z3|zB,,E,|D,G,_E,-|E,/F,/ C,/D,/_E,/F,/|
V:1
B2c-|c/=B/e>e-|e/e/d>d-|d/d/c>c-|c/=B/_B>B-|
V:2
A3/G/F/^F/|G>G_G|F2-F/F/|E>ED-|DD>D|
V:3
B,E,_A,|G,C=A,-|A,/B,/ F,/G,/A,/B,/|\
	G,/B,/ A,/G,/ ^F,/D,/|G,/G,/ D,/=E,/^F,/G,/|
V:4
E,/D,/E,z|Z4|
V:1
B/B/=A>_A-|A/G/Be|dge-|e/f/ c/d/_e/f/|e/d/gc|
V:2
_Dz/C/_C|B,3/EF/-|F/_A/ G/=B/c/G/|F2B/c/|FG/B/A/G/|
V:3
=F,/=E,/ F,/_E,=D,/|E,2G,/=A,/|\
	B,3/D/C/_B,/|A,-A,/B,/G,/A,/|B,2C/A,/|
V:4
z3|zG,,C,|B,,E,C,|F,3|B,E,2|
V:1
fBe|dcA|B/_A/G/F/G/=A/|B/A/B/c/d/e/-|edc|Hd3|]
V:2
F/G//A// G/F/E/A/|B3/G/F/E/|DEG|FEA|B3-|B3|]
V:3
B,E,>_G|F/B,E/D/C/|B,/z/B,E|DG_G|F2E|F3|]
V:4
D,2C,|D,E,F,|B,,3-|B,,3|B,,3-|B,,3|]

